X: 1
T: Winter Haven on Winter Street
C: David A. Kaynor 2015
N: Dedicated to Linda Young
%D: 2015
S: facebook post from Rebecca Weiss, 2011-12-16
Z: 2021 John Chambers <jc:trillian.mit.edu>
M: 3/4
L: 1/8
K: G
% = = = = = = = = = =
V: 1 staves=2
GB |\
"G"d3 B eB | "/F#"d4 GB | "/F"d3 B eB | "/D"d4 Bd |\
"Em"eB dB AB | "Am"AG E2 CD |[1 "(C)"EF GB AG | "D"A4 :|[2 "D(Em)" EF GB "D"AF | "G"G4 ||
GF |\
"Em/A"EG Bc BG | "(/D)"EG Bc BG | "(/C)"EG Bc BA | "(/D)"B2 e4 |\
"Am"a4- ae | "Bm"fd B4 | "C"ec G3 A | "D"B2 A2 ||
GF |\
"Em"EG Bc BG | "(/D)"EG Bc BG | "(/C)"EG Bc "Am"BA | "D"a4 gf |\
"A(C)"e3 c AD | "Bm"B2 d4 | "D(Am7)"DE GB "(D7)"AF | "G"G4 |]
% = = = = = = = = = =
V: 2
DG |\
B3 G cG | B4 DG | B3 G cG | B4 GB |\
cG BG EG | E2 C2 A,B, |[1 C2 E2 EE | "D"F4 :|[2 CD D2 FD | [D4B,4] ||
[dB,][DB,] |\
B,E GA GE | B,E GA GE | B,E GA GF | G2 B4 |\
f4- fc | dB F4 | cG E3 C | D2 F2 ||
ED |\
B,E GA GE | B,E GA GE | B,E GA GF | f4 d2 |\
c3 A EA, | D2 [B4F4] | A,C D2 FD | [D4B,4] |]
